!!!COM: Bach, Johann Sebastian
!!!OPR: Joh. Seb. Bachs vierstimmige Choralgesänge
!!!XEN: Four-part Chorales
!!!OTL: 173. Weltlich Ehr' und zeitlich Gut
!!!SCT: BWV 426
!!!SCA: Thematisch-systematisches Verzeichnis der musikalischen Werke Johann Sebastian Bach: Bach-Werke-Verzeichnis (Schmieder)
!!!YOR: Bach Gesellschaft Edition xxxix
!!!ENC: Steven Rasmussen
!!!CDT: 1685/3//-1750/7/28/
!!!OCY: Deutschland
!!!YEC: Copyright (c) 1994, 2000 Center for Computer Assisted Research in the Humanities
!!!YEM: Rights to all derivative editions reserved
!!!YEN: United States of America
**kern	**silbe	**kern	**silbe	**kern	**silbe	**kern	**silbe
*I:[BASSO]	*I:[BASSO]	*I:[TENORE]	*I:[TENORE]	*I:[ALTO]	*I:[ALTO]	*I:[SOPRANO]	*I:[SOPRANO]
*clefF4	*	*clefGv2	*	*clefG2	*	*clefG2	*
*k[]	*	*k[]	*	*k[]	*	*k[]	*
*C:	*	*C:	*	*C:	*	*C:	*
*M4/4	*	*M4/4	*	*M4/4	*	*M4/4	*
=1-	=1-	=1-	=1-	=1-	=1-	=1-	=1-
8CL	.	4G	.	8eL	.	4cc	Welt-
8DJ	.	.	.	8fJ	.	.	.
4E	.	8GL	.	4g	.	4b	-lich
.	.	8cJ	.	.	.	.	.
8FL	.	4c	.	8gL	.	4a	Ehr'
8GJ	.	.	.	16fL	.	.	.
.	.	.	.	16eJJ	.	.	.
8FL	.	4c	.	4f	.	4a	und
8EJ	.	.	.	.	.	.	.
=2	=2	=2	=2	=2	=2	=2	=2
4D	.	8dL	zeit-	8fL	.	4a	zeit-
.	.	8f	.	8aJ	.	.	.
8GL	.	8e	.	4g	.	4b	.
8FJ	.	8dJ	.	.	.	.	.
4E	.	4c	.	4.g	.	8ccL	-lich
.	.	.	.	.	.	8bJ	.
4F	.	4c	-lich	.	.	4a	.
.	.	.	.	8f	.	.	.
=3	=3	=3	=3	=3	=3	=3	=3
2C;	.	2c;	.	(4f	.	2g;	Gut,
.	.	.	.	4e;)	.	.	.
4r	.	4r	.	4r	.	4r	.
4G	.	4d	.	4g	.	4b	Wol-
=4	=4	=4	=4	=4	=4	=4	=4
8CL	.	4e	.	4g	.	4cc	-lust
8EJ	.	.	.	.	.	.	.
8GL	.	4d	.	4g	.	4b	und
8FJ	.	.	.	.	.	.	.
8EL	.	4c	.	4g	.	4cc	al-
8CJ	.	.	.	.	.	.	.
8FL	.	4c	.	4f	.	4a	-ler
8EJ	.	.	.	.	.	.	.
=5	=5	=5	=5	=5	=5	=5	=5
8DL	.	4d	.	4f	.	4b	Ü-
8BB	.	.	.	.	.	.	.
8E	.	4B	.	4e	.	4g	.
8DJ	.	.	.	.	.	.	.
8CL	.	8AL	.	2e	.	2a	-ber-
8BB	.	8B	.	.	.	.	.
8AA	.	8c	.	.	.	.	.
8CJ	.	8AJ	.	.	.	.	.
=6	=6	=6	=6	=6	=6	=6	=6
2E;	.	2G#;	.	2e;	.	2b;	-mut
4r	.	4r	.	4r	.	4r	.
4E	.	4Gn	.	4e	.	4b	ist
=7	=7	=7	=7	=7	=7	=7	=7
4D#	.	8BL	.	8f#L	.	4b	e-
.	.	8f#J	.	8aJ	.	.	.
4E	.	8f#L	.	8aL	.	4b	-ben
.	.	8eJ	.	8gJ	.	.	.
4F#	.	8eL	.	4f#	.	4a	wie
.	.	8dJ	.	.	.	.	.
4G#	.	8cL	.	4e	.	4b	ein
.	.	8BJ	.	.	.	.	.
=8	=8	=8	=8	=8	=8	=8	=8
2A;	.	2A;	.	2e;	.	2cc;	Gras;
4B	.	4d	.	8dL	.	4g	al-
.	.	.	.	8fJ	.	.	.
4c	.	8dL	.	8fL	.	4g	-le
.	.	16cL	.	8eJ	.	.	.
.	.	16BJJ	.	.	.	.	.
=9	=9	=9	=9	=9	=9	=9	=9
4F#	.	4c	.	8eL	.	4a	Pracht
.	.	.	.	8dJ	.	.	.
8GL	.	8BL	.	4d	.	4b	und
8F#J	.	8AJ	.	.	.	.	.
8EL	.	8GL	.	(8c	.	4cc	stol-
8CJ	.	8eJ	.	4g)	.	.	.
4D	.	4d	.	.	.	4a	-zer
.	.	.	.	8f#	.	.	.
=10	=10	=10	=10	=10	=10	=10	=10
2GG;	.	2d;	.	2g;	.	2b;	Ruhm
4GG	.	4d	.	4.g	.	4b	ver-
4AA	.	4c	.	.	.	4cc	-fÃ¤llt
.	.	.	.	8f#	.	.	.
=11	=11	=11	=11	=11	=11	=11	=11
4BB	.	4B	.	8gL	.	4dd	wie
.	.	.	.	8aJ	.	.	.
4GG#	.	4e	.	4b	.	4dd	ein'
8AAL	.	4e	.	8aL	.	4cc	Wie-
8BBJ	.	.	.	8gJ	.	.	.
8CL	.	4d	.	4f#	.	4a	-sen-
8DJ	.	.	.	.	.	.	.
=12	=12	=12	=12	=12	=12	=12	=12
2GG;	.	2d;	.	2g;	.	2b;	-blum';
8dL	.	8f#L	.	4a	.	4dd	o
8cJ	.	8eJ	.	.	.	.	.
8BL	.	8dL	.	8gL	.	4dd	Mensch,
8AJ	.	8cJ	.	8aJ	.	.	.
=13	=13	=13	=13	=13	=13	=13	=13
8GL	.	4B	.	8bL	.	4dd	be-
8FJ	.	.	.	8aJ	.	.	.
8EL	.	4B	.	8gL	.	4dd	-denk'
8DJ	.	.	.	8fJ	.	.	.
4C	.	8cL	.	4e	.	4ee	e-
.	.	8BJ	.	.	.	.	.
4D	.	4A	.	4f#	.	8ddL	-ben
.	.	.	.	.	.	8ccJ	.
=14	=14	=14	=14	=14	=14	=14	=14
2E;	.	2e;	.	2g;	.	2b;	das
4GG	.	4d	.	8gL	.	4b	und
.	.	.	.	8fJ	.	.	.
8CL	ver-	4c	ver-	4e	ver-	4g	ver-
8BBJ	.	.	.	.	.	.	.
=15	=15	=15	=15	=15	=15	=15	=15
4AA	-sor-	4c	-sor-	8eL	-sor-	4a	-sor-
.	.	.	.	8f#J	.	.	.
4GG	.	4d	.	4g	-ge	8bL	.
.	.	.	.	.	.	8ccJ	.
4FF#	.	4d	-ge	4.a	dich	8ddL	.
.	.	.	.	.	.	8ccJ	.
4GG	-ge	[4d	dich	.	.	4b	-ge
.	.	.	.	[8g	.	.	.
=16	=16	=16	=16	=16	=16	=16	=16
4D	dich	4d]	.	8gL]	.	4a	dich
.	.	.	.	16fL	.	.	.
.	.	.	.	16eJJ	.	.	.
4GG	doch	8dL	.	8fL	doch	4b	doch
.	.	8GJ	.	16eL	.	.	.
.	.	.	.	16dJJ	.	.	.
2C;	.	2G;	.	2e;	.	2cc;	bass.
==|!	==|!	==|!	==|!	==|!	==|!	==|!	==|!
!!!RNB1: *) "Übermut" spelled "Uebermut" in BG.
*-	*-	*-	*-	*-	*-	*-	*-
!!!RWG: Key is interpreted using the Humdrum key tool.
!!!URL-pdf: https://s9.imslp.org/files/imglnks/usimg/6/6b/IMSLP24489-PMLP09471-CCARH_Bach_Chorales.pdf#page=120 Musedata edition
!!!URL-pdf: https://s9.imslp.org/files/imglnks/usimg/7/7a/IMSLP04155-Bach_-_BGA_253-438.pdf#page=95 	Bach-Gesellschaft Ausgabe, Band 39 (pp.175-276) Leipzig: Breitkopf und Härtel, 1892. Plate B.W. XXXIX.
!!!END: 1994/08/08
!!!EMD: Converted from MuseData to Humdrum Dec 19, 2000, by Andreas Kornstaedt using muse2kern.
!!!EED: Craig Stuart Sapp
!!!EEV: 2024/03/31
!!!ONB: Some non-unicode characters
!!!filter-keyboard: satb2gs
